Numix-Light/16/status/indicator-keyboard-Ml-2.svg

<?xml version="1.0" encoding="UTF-8" standalone="no"?>
<svg
   xmlns:dc="http://purl.org/dc/elements/1.1/"
   xmlns:cc="http://creativecommons.org/ns#"
   xmlns:rdf="http://www.w3.org/1999/02/22-rdf-syntax-ns#"
   xmlns:svg="http://www.w3.org/2000/svg"
   xmlns="http://www.w3.org/2000/svg"
   xmlns:sodipodi="http://sodipodi.sourceforge.net/DTD/sodipodi-0.dtd"
   xmlns:inkscape="http://www.inkscape.org/namespaces/inkscape"
   viewBox="0 0 16 16"
   id="svg2"
   version="1.1"
   inkscape:version="0.91 r13725"
   sodipodi:docname="indicator-keyboard-Ml-2.svg">
  <metadata
     id="metadata14">
    <rdf:RDF>
      <cc:Work
         rdf:about="">
        <dc:format>image/svg+xml</dc:format>
        <dc:type
           rdf:resource="http://purl.org/dc/dcmitype/StillImage" />
      </cc:Work>
    </rdf:RDF>
  </metadata>
  <defs
     id="defs12" />
  <sodipodi:namedview
     pagecolor="#ffffff"
     bordercolor="#666666"
     borderopacity="1"
     objecttolerance="10"
     gridtolerance="10"
     guidetolerance="10"
     inkscape:pageopacity="0"
     inkscape:pageshadow="2"
     inkscape:window-width="640"
     inkscape:window-height="480"
     id="namedview10"
     showgrid="false"
     inkscape:zoom="14.75"
     inkscape:cx="8"
     inkscape:cy="8"
     inkscape:window-x="75"
     inkscape:window-y="34"
     inkscape:window-maximized="0"
     inkscape:current-layer="svg2" />
  <path
     style="fill:#353535;fill-opacity:1"
     d="M 1.5996094 0 C 0.71320937 2.9605947e-16 0 0.71320937 0 1.5996094 L 0 14.400391 C 2.9605947e-16 15.286791 0.71320937 16 1.5996094 16 L 14.400391 16 C 15.286791 16 16 15.286791 16 14.400391 L 16 1.5996094 C 16 0.71320937 15.286791 0 14.400391 0 L 1.5996094 0 z M 10.359375 4.1113281 L 10.359375 9.9628906 C 10.359375 10.106891 10.372484 10.2225 10.396484 10.3125 C 10.426484 10.3965 10.467484 10.465531 10.521484 10.519531 C 10.575484 10.567531 10.644516 10.604906 10.728516 10.628906 C 10.818516 10.652906 10.922969 10.673406 11.042969 10.691406 L 10.962891 11.177734 C 10.764891 11.171734 10.591406 11.143703 10.441406 11.095703 C 10.297406 11.053703 10.174266 10.988438 10.072266 10.898438 C 9.976266 10.802437 9.9016563 10.681109 9.8476562 10.537109 C 9.7996562 10.387109 9.7753906 10.202469 9.7753906 9.9804688 L 9.7753906 4.2207031 L 10.359375 4.1113281 z M 2.3203125 4.859375 L 2.8613281 4.859375 C 3.0413281 5.159375 3.2335 5.5063438 3.4375 5.9023438 C 3.6415 6.2923438 3.8410625 6.7009531 4.0390625 7.1269531 C 4.2430625 7.5469531 4.439 7.9649063 4.625 8.3789062 C 4.817 8.7869062 4.9849063 9.154375 5.1289062 9.484375 C 5.2729063 9.154375 5.4370469 8.7869063 5.6230469 8.3789062 C 5.8150469 7.9649062 6.0109844 7.5469531 6.2089844 7.1269531 C 6.4129844 6.7009531 6.6163125 6.2923438 6.8203125 5.9023438 C 7.0243125 5.5063438 7.2164844 5.159375 7.3964844 4.859375 L 7.9101562 4.859375 C 8.0121563 5.807375 8.0961094 6.7998906 8.1621094 7.8378906 C 8.2341094 8.8758906 8.2956094 9.9617029 8.3496094 11.095703 L 7.7304688 11.095703 C 7.6944688 10.129703 7.6515156 9.2080312 7.6035156 8.3320312 C 7.5615156 7.4500313 7.5018281 6.6347656 7.4238281 5.8847656 C 7.3758281 5.9687656 7.3012188 6.1124063 7.1992188 6.3164062 C 7.0972187 6.5204063 6.9796563 6.7573437 6.8476562 7.0273438 C 6.7156562 7.2973438 6.5775938 7.5883906 6.4335938 7.9003906 C 6.2895937 8.2063906 6.1477656 8.5067812 6.0097656 8.8007812 C 5.8717656 9.0887812 5.7468125 9.3555625 5.6328125 9.6015625 C 5.5248125 9.8475625 5.4408594 10.045312 5.3808594 10.195312 L 4.8320312 10.195312 C 4.7720312 10.045312 4.6843125 9.8475625 4.5703125 9.6015625 C 4.4623125 9.3555625 4.3391719 9.0887813 4.2011719 8.8007812 C 4.0631719 8.5067812 3.9232969 8.2063906 3.7792969 7.9003906 C 3.6352969 7.5883906 3.4972344 7.2973438 3.3652344 7.0273438 C 3.2332344 6.7573437 3.1156719 6.5204063 3.0136719 6.3164062 C 2.9116719 6.1124063 2.8370625 5.9687656 2.7890625 5.8847656 C 2.7110625 6.6347656 2.6476094 7.4500312 2.5996094 8.3320312 C 2.5576094 9.2080312 2.5184219 10.129703 2.4824219 11.095703 L 1.8789062 11.095703 C 1.9329063 9.9617029 1.9945469 8.8758906 2.0605469 7.8378906 C 2.1325469 6.7998906 2.2183125 5.807375 2.3203125 4.859375 z M 12.792969 8.7539062 C 13.186869 8.7539062 13.482741 8.851875 13.681641 9.046875 C 13.880541 9.237975 13.980469 9.5044563 13.980469 9.8476562 C 13.980469 9.9997563 13.953038 10.14475 13.898438 10.28125 C 13.843837 10.41385 13.769381 10.543169 13.675781 10.667969 C 13.586081 10.792769 13.482234 10.912297 13.365234 11.029297 C 13.248234 11.146297 13.130666 11.263859 13.009766 11.380859 C 12.908366 11.478359 12.808437 11.578288 12.710938 11.679688 C 12.617338 11.777187 12.531125 11.877116 12.453125 11.978516 C 12.379025 12.076016 12.318284 12.172031 12.271484 12.269531 C 12.228584 12.363131 12.207031 12.457181 12.207031 12.550781 L 12.207031 12.5625 L 14.121094 12.5625 L 14.121094 12.896484 L 11.787109 12.896484 C 11.787109 12.888684 11.785183 12.874969 11.78125 12.855469 L 11.78125 12.755859 C 11.78125 12.572559 11.812606 12.402094 11.878906 12.246094 C 11.945206 12.086194 12.029459 11.937275 12.130859 11.796875 C 12.236159 11.656475 12.351763 11.525197 12.476562 11.404297 C 12.605262 11.283397 12.728703 11.165834 12.845703 11.052734 C 12.943203 10.959134 13.033341 10.869003 13.119141 10.783203 C 13.208841 10.693503 13.287216 10.603366 13.353516 10.509766 C 13.419816 10.416166 13.472719 10.316237 13.511719 10.210938 C 13.550719 10.105638 13.570312 9.9900344 13.570312 9.8652344 C 13.570312 9.5922344 13.495856 9.39825 13.347656 9.28125 C 13.203356 9.16035 13.021128 9.0996094 12.798828 9.0996094 C 12.674028 9.0996094 12.562344 9.1152844 12.464844 9.1464844 C 12.367344 9.1776844 12.281131 9.2149125 12.207031 9.2578125 C 12.136831 9.2968125 12.076091 9.3379594 12.025391 9.3808594 C 11.974691 9.4237594 11.937462 9.4570688 11.914062 9.4804688 L 11.716797 9.2167969 C 11.740197 9.1894969 11.781344 9.1503094 11.839844 9.0996094 C 11.902244 9.0450094 11.976706 8.9921062 12.066406 8.9414062 C 12.160006 8.8907063 12.267772 8.8476 12.388672 8.8125 C 12.509572 8.7735 12.644769 8.7539063 12.792969 8.7539062 z "
     id="path4" />
</svg>

<svg xmlns="http://www.w3.org/2000/svg" viewBox="0 0 16 16">
 <path d="m 1.6 0 c -0.886 0 -1.6 0.713 -1.6 1.6 l 0 12.801 c 0 0.886 0.713 1.6 1.6 1.6 l 12.801 0 c 0.886 0 1.6 -0.713 1.6 -1.6 l 0 -12.801 c 0 -0.886 -0.713 -1.6 -1.6 -1.6 l -12.801 0 z m 8.76 4.111 l 0 5.852 c 0 0.144 0.013 0.26 0.037 0.35 c 0.03 0.084 0.071 0.153 0.125 0.207 c 0.054 0.048 0.123 0.085 0.207 0.109 c 0.09 0.024 0.194 0.044 0.314 0.063 l -0.08 0.486 c -0.198 -0.006 -0.371 -0.034 -0.521 -0.082 c -0.144 -0.042 -0.267 -0.107 -0.369 -0.197 c -0.096 -0.096 -0.171 -0.217 -0.225 -0.361 c -0.048 -0.15 -0.072 -0.335 -0.072 -0.557 l 0 -5.76 l 0.584 -0.109 z m -8.04 0.748 l 0.541 0 c 0.18 0.3 0.372 0.647 0.576 1.043 c 0.204 0.39 0.404 0.799 0.602 1.225 c 0.204 0.42 0.4 0.838 0.586 1.252 c 0.192 0.408 0.36 0.775 0.504 1.105 c 0.144 -0.33 0.308 -0.697 0.494 -1.105 c 0.192 -0.414 0.388 -0.832 0.586 -1.252 c 0.204 -0.426 0.407 -0.835 0.611 -1.225 c 0.204 -0.396 0.396 -0.743 0.576 -1.043 l 0.514 0 c 0.102 0.948 0.186 1.941 0.252 2.979 c 0.072 1.038 0.133 2.124 0.188 3.258 l -0.619 0 c -0.036 -0.966 -0.079 -1.888 -0.127 -2.764 c -0.042 -0.882 -0.102 -1.697 -0.18 -2.447 c -0.048 0.084 -0.123 0.228 -0.225 0.432 c -0.102 0.204 -0.22 0.441 -0.352 0.711 c -0.132 0.27 -0.27 0.561 -0.414 0.873 c -0.144 0.306 -0.286 0.606 -0.424 0.9 c -0.138 0.288 -0.263 0.555 -0.377 0.801 c -0.108 0.246 -0.192 0.444 -0.252 0.594 l -0.549 0 c -0.06 -0.15 -0.148 -0.348 -0.262 -0.594 c -0.108 -0.246 -0.231 -0.513 -0.369 -0.801 c -0.138 -0.294 -0.278 -0.594 -0.422 -0.9 c -0.144 -0.312 -0.282 -0.603 -0.414 -0.873 c -0.132 -0.27 -0.25 -0.507 -0.352 -0.711 c -0.102 -0.204 -0.177 -0.348 -0.225 -0.432 c -0.078 0.75 -0.141 1.565 -0.189 2.447 c -0.042 0.876 -0.081 1.798 -0.117 2.764 l -0.604 0 c 0.054 -1.134 0.116 -2.22 0.182 -3.258 c 0.072 -1.038 0.158 -2.031 0.26 -2.979 z m 10.473 3.895 c 0.394 0 0.69 0.098 0.889 0.293 c 0.199 0.191 0.299 0.458 0.299 0.801 c 0 0.152 -0.027 0.297 -0.082 0.434 c -0.055 0.133 -0.129 0.262 -0.223 0.387 c -0.09 0.125 -0.194 0.244 -0.311 0.361 c -0.117 0.117 -0.235 0.235 -0.355 0.352 c -0.101 0.098 -0.201 0.197 -0.299 0.299 c -0.094 0.097 -0.18 0.197 -0.258 0.299 c -0.074 0.097 -0.135 0.194 -0.182 0.291 c -0.043 0.094 -0.064 0.188 -0.064 0.281 l 0 0.012 l 1.914 0 l 0 0.334 l -2.334 0 c 0 -0.008 -0.002 -0.022 -0.006 -0.041 l 0 -0.1 c 0 -0.183 0.031 -0.354 0.098 -0.51 c 0.066 -0.16 0.151 -0.309 0.252 -0.449 c 0.105 -0.14 0.221 -0.272 0.346 -0.393 c 0.129 -0.121 0.252 -0.238 0.369 -0.352 c 0.098 -0.094 0.188 -0.184 0.273 -0.27 c 0.09 -0.09 0.168 -0.18 0.234 -0.273 c 0.066 -0.094 0.119 -0.194 0.158 -0.299 c 0.039 -0.105 0.059 -0.221 0.059 -0.346 c 0 -0.273 -0.074 -0.467 -0.223 -0.584 c -0.144 -0.121 -0.327 -0.182 -0.549 -0.182 c -0.125 0 -0.236 0.016 -0.334 0.047 c -0.098 0.031 -0.184 0.068 -0.258 0.111 c -0.07 0.039 -0.131 0.08 -0.182 0.123 c -0.051 0.043 -0.088 0.076 -0.111 0.1 l -0.197 -0.264 c 0.023 -0.027 0.065 -0.066 0.123 -0.117 c 0.062 -0.055 0.137 -0.108 0.227 -0.158 c 0.094 -0.051 0.201 -0.094 0.322 -0.129 c 0.121 -0.039 0.256 -0.059 0.404 -0.059 z" style="fill:#353535;fill-opacity:1"/>
</svg>
